resources/email.svg

<svg enable-background="new 0 0 512 512" viewBox="0 0 512 512" xmlns="http://www.w3.org/2000/svg"><path d="m256 512c-141.4 0-256-114.6-256-256s114.6-256 256-256 256 114.6 256 256-114.6 256-256 256zm-147.8-167.5 83.2-78.7-83.2-68.8zm295.6-196.7h-295.6v29.5l147.8 127.9 147.8-127.8zm0 49.2-83.2 68.8 83.2 78.7zm-92.4 78.7-55.4 49.1-55.4-49.2-92.4 88.5h295.7z" fill="#fff"/></svg>

<?xml version="1.0" encoding="utf-8"?>
<!-- Generator: Adobe Illustrator 22.0.1, SVG Export Plug-In . SVG Version: 6.00 Build 0)  -->
<svg version="1.1" id="Layer_1" xmlns="http://www.w3.org/2000/svg" xmlns:xlink="http://www.w3.org/1999/xlink" x="0px" y="0px"
	 viewBox="0 0 512 512" style="enable-background:new 0 0 512 512;" xml:space="preserve">
<style type="text/css">
	.st0{fill:#FFFFFF;}
</style>
<path class="st0" d="M256,512C114.6,512,0,397.4,0,256S114.6,0,256,0s256,114.6,256,256S397.4,512,256,512z M108.2,344.5l83.2-78.7
	L108.2,197V344.5z M403.8,147.8H108.2v29.5L256,305.2l147.8-127.8V147.8z M403.8,197l-83.2,68.8l83.2,78.7V197z M311.4,275.7
	L256,324.8l-55.4-49.2l-92.4,88.5h295.7L311.4,275.7z"/>
</svg>
